X:29
%%score 1 2
%%pagewidth 950pt
T: Who liveth so merry in all this land?
M:6/8
L:1/8
K:Bb
V:1 clef-treble
V:2 clef-bass octave=-1
V:1
B|c>BF BBB & D6|c2c d2d & E3 D3|e>dc d>cB & F3 F3|c>dc B2B & E3 D3|
w:Who li-veth so mer-ry in all this land, As doth the poor wid-ow that sell-eth the sand, And
V:2
z|[B,F]6|A3 B3 & [B,F]6|A3 B3 & [B,F]6|A3 B3 & [B,F]6|
V:1
c>BF BBB & D6|c2c d2d/d/ & E3 D3|e>dc d>cB & F3 F3|(cG)>A B2 & E3 D2||
w:e-ver she sing-eth as I can guess, Will you buy* any sand,* any sand,* Mistress.|
V:2
[B,F]6|A3 B3 & [B,F]6| A3 B3 &[B,F]6|F3 F2 & B,3 B,2||

